X:493
T:Here Awa', There Awa'
B:Popular Songs and Melodies of Scotland (1893)
Z:Nigel Gatherer
M:3/4
L:1/8
K:G
d3    cBA | G3 A G2 | A3 G  A2 | B2 e4     |
d3    cBA | G3 A B2 | e3 ^d e2 | E4    z2 ||
B2 e2 ^d2 | e3 f g2 | d2 e2 dc | B3  c d2  |
B2 e2 ^d2 | e3 f g2 | B3  A B2 | E4    z2 |]
<end>
<start>
